X: 1
T: Nya Bonnjazzen schottis
C: arr. Carl J.Johnson
R: shottish
Z: 2019 John Chambers <jc:trillian.mit.edu>
M: C
L: 1/8
K: C
%%staffsep 40
|: "C"[GE]>FE>F [G4E4] | [GE]>FE>G [c4E4] |\
   "F"A^GAB dcBA | [G2E2][c2E2] [G4E4] |\
[1 "C"[GE]>FE>F [G4E4] | [GE]>FE>G [c4E4] |
   "D7"d>^cd>e d>=cB>A | "G"B2G2 [G4B,4] :|\
[2 "D7"^F>EF>G [A3F3C3]D | "G"G>^FG>A [B3G3D3]G |\
   "Am"A>^GA>B [c2E2]"D7"[^F2C2] | "G7"[G6B,6] [G2B,2] |]
|: "C"E>F^F>G A>GF>G | [e4c4] [e4c4] |\
      [G2E2][e2c2] [d2B2][c2A2] | "G"[BD4]c^cd [F3D3][FD] |\
[1,3 "G7"D>^DE>F G>FE>F | [d4B4F4] [d4B4F4] | [g3B3]d [g3B3]d |
     "C"[e2c2][g2e2] "G7"[g4d4B4] :|\
[2,4 "Dm"A>^GA>B "(G7)"d>cB>A | "C"G>^FG>A "(Am)"c>BA>G |\
     "G7(Dm)"F>EF>G "G7"B>AF>D ||2 "C"[c2E2C2] (3GGG "G7"[G2F4B,4] [G2D2] :|4 "C"[c4E4C4] [c'2e2c2] z2 |]
